X:8384
T:Kas a barh
C:Pennec Tablatures
M:C
L:1/8
K:C
Aeec A2 AB|c2 BA B2 B2|\
Aeec A2 AB|c/B/ABc A4:|
|:Addc B2 B2|Addc B4:|\
|:A2 GA B2 Bd|c/B/ABc A4:|
